X: 39
T: the Party Tune
C:
%D:
R: march
B: PC3 p.158
S: Fiddle Hell Online 2021-10-13 Portland Collection Jam handout
Z: 2022 John Chambers <jc:trillian.mit.edu>
M: C|
L: 1/8
K: D
%%continueall
"^A"|: AB ||\
"D"A2zG F2A2 | d2d2- dAAB | A2G2 F2A2 | "Em"e4- eAAA ||\
"A"A3B c2d2 | e3e effg | f2e2 B2c2 |\
|[1 "D"dcde dB :|[2 "D"d2z "^B"|: f "D7"f2e2 ||\
"G"g3e "G#dim"e2d2 | "D"f3d "Bm"d2c2 | "Em"e2c2 "A"B2A2 |\
[1,3 "D"f3 :|[2 "D"d2z :|[4 "D"d4 z2 |]


